exports/cancer-deaths-rate-and-age-standardized-rate-index_v1_850x600.svg

<svg xmlns="http://www.w3.org/2000/svg" version="1.1" style="background-color:#fff;-webkit-font-smoothing:antialiased" width="850" height="600" font-family="'Helvetica Neue',Helvetica,Arial,sans-serif" font-size="18" text-rendering="optimizeLegibility"><g class="ChartTab"><g class="HeaderView"><g opacity=".8" transform="matrix(.27 0 0 .27 778 15)"><a xmlns:xlink="http://www.w3.org/1999/xlink" xlink:href="https://ourworldindata.org" target="_blank"><g><path fill="#1B2543" d="M0 0h211.2v130.1H0z"/><path fill="#E63912" d="M0 112.2h211.2v17.9H0z"/><g><path fill="none" d="M1.2 12.3h210.2v99.2H1.2z"/><path fill="#FFF" d="M37.8 32.2c0 12.7-7.7 19.4-17.1 19.4-9.7 0-16.6-7.5-16.6-18.7 0-11.7 7.3-19.3 17.1-19.3 10.1.1 16.6 7.7 16.6 18.6zm-28.6.6c0 7.9 4.3 14.9 11.8 14.9 7.5 0 11.8-6.9 11.8-15.3 0-7.3-3.8-14.9-11.8-14.9-7.9 0-11.8 7.3-11.8 15.3zM62.7 43.8c0 2.7.1 5.1.2 7.2h-4.3l-.3-4.3h-.1c-1.3 2.1-4 4.9-8.8 4.9-4.2 0-9.1-2.3-9.1-11.6V24.6h4.8v14.6c0 5 1.5 8.4 5.9 8.4 3.2 0 5.5-2.2 6.3-4.4.3-.7.4-1.6.4-2.5V24.6h4.8v19.2zM67.3 32.8c0-3.1-.1-5.8-.2-8.2h4.2l.2 5.2h.2c1.2-3.5 4.1-5.8 7.3-5.8.5 0 .9.1 1.4.2v4.5c-.5-.1-1-.2-1.6-.2-3.4 0-5.8 2.6-6.5 6.2-.1.7-.2 1.4-.2 2.2V51h-4.8V32.8zM95.4 51L86 14.2h5l4.4 18.6c1.1 4.6 2.1 9.2 2.7 12.7h.1c.6-3.7 1.8-8 3-12.8l4.9-18.5h5l4.5 18.7c1 4.4 2 8.7 2.6 12.6h.1c.8-4 1.8-8.1 3-12.7l4.9-18.5h4.9L120.6 51h-5L111 31.9c-1.1-4.7-1.9-8.3-2.4-12h-.1c-.7 3.7-1.5 7.3-2.8 12L100.4 51h-5zM154.9 37.6c0 9.8-6.8 14-13.2 14-7.2 0-12.7-5.2-12.7-13.6 0-8.8 5.8-14 13.1-14 7.7 0 12.8 5.5 12.8 13.6zm-21 .3c0 5.8 3.3 10.1 8 10.1 4.6 0 8-4.3 8-10.3 0-4.5-2.2-10.1-7.9-10.1s-8.1 5.2-8.1 10.3zM158.2 32.8c0-3.1-.1-5.8-.2-8.2h4.2l.2 5.2h.2c1.2-3.5 4.1-5.8 7.3-5.8.5 0 .9.1 1.4.2v4.5c-.5-.1-1-.2-1.6-.2-3.4 0-5.8 2.6-6.5 6.2-.1.7-.2 1.4-.2 2.2V51h-4.8V32.8zM173.5 12.3h4.8V51h-4.8V12.3zM206.5 12.3v31.9c0 2.3.1 5 .2 6.8h-4.3l-.2-4.6h-.2c-1.5 2.9-4.7 5.2-9 5.2-6.4 0-11.3-5.4-11.3-13.4-.1-8.8 5.4-14.2 11.9-14.2 4 0 6.8 1.9 8 4h.1V12.3h4.8zm-4.8 23.1c0-.6-.1-1.4-.2-2a7 7 0 00-6.9-5.6c-5 0-7.9 4.4-7.9 10.2 0 5.3 2.6 9.8 7.8 9.8 3.2 0 6.2-2.1 7.1-5.7.2-.7.2-1.3.2-2.1v-4.6zM42.8 64c.1 1.6-1.1 2.9-3.1 2.9-1.7 0-2.9-1.3-2.9-2.9 0-1.7 1.3-3 3-3 1.9 0 3 1.3 3 3zm-5.4 33.8V71.4h4.8v26.4h-4.8zM47.5 78.6c0-2.7-.1-5-.2-7.1h4.3l.3 4.4h.1c1.3-2.5 4.4-5 8.8-5 3.7 0 9.4 2.2 9.4 11.2v15.8h-4.8V82.6c0-4.3-1.6-7.8-6.1-7.8-3.2 0-5.6 2.2-6.5 4.9-.2.6-.3 1.4-.3 2.2v15.9h-4.8V78.6zM84 61.6c2.9-.4 6.3-.8 10.1-.8 6.8 0 11.7 1.6 14.9 4.6 3.3 3 5.2 7.3 5.2 13.2 0 6-1.9 10.9-5.3 14.3-3.4 3.4-9.1 5.3-16.3 5.3-3.4 0-6.2-.2-8.6-.4V61.6zm4.8 32.5c1.2.2 3 .3 4.8.3 10.2 0 15.7-5.7 15.7-15.6.1-8.7-4.9-14.2-14.9-14.2-2.5 0-4.3.2-5.6.5v29zM132.1 97.8l-.4-3.3h-.2a9.79 9.79 0 01-8.1 3.9c-5.4 0-8.1-3.8-8.1-7.6 0-6.4 5.7-9.9 15.9-9.8v-.5c0-2.2-.6-6.1-6-6.1-2.5 0-5 .8-6.9 2l-1.1-3.2c2.2-1.4 5.4-2.3 8.7-2.3 8.1 0 10.1 5.5 10.1 10.8v9.9c0 2.3.1 4.5.4 6.3h-4.3zm-.7-13.4c-5.3-.1-11.2.8-11.2 5.9 0 3.1 2.1 4.6 4.5 4.6 3.4 0 5.6-2.2 6.4-4.4.2-.5.3-1 .3-1.5v-4.6zM146.6 63.9v7.6h6.9v3.7h-6.9v14.2c0 3.3.9 5.1 3.6 5.1 1.3 0 2.2-.2 2.8-.3l.2 3.6c-.9.4-2.4.7-4.3.7-2.2 0-4-.7-5.2-2-1.4-1.4-1.9-3.8-1.9-6.9V75.1h-4.1v-3.7h4.1v-6.3l4.8-1.2zM171.4 97.8l-.4-3.3h-.2a9.79 9.79 0 01-8.1 3.9c-5.4 0-8.1-3.8-8.1-7.6 0-6.4 5.7-9.9 15.9-9.8v-.5c0-2.2-.6-6.1-6-6.1-2.5 0-5 .8-6.9 2l-1.1-3.2c2.2-1.4 5.4-2.3 8.7-2.3 8.1 0 10.1 5.5 10.1 10.8v9.9c0 2.3.1 4.5.4 6.3h-4.3zm-.7-13.4c-5.3-.1-11.2.8-11.2 5.9 0 3.1 2.1 4.6 4.5 4.6 3.4 0 5.6-2.2 6.4-4.4.2-.5.3-1 .3-1.5v-4.6z"/></g></g></a></g><a href="https://ourworldindata.org/grapher/cancer-deaths-rate-and-age-standardized-rate-index" target="_blank"><text font-size="27" x="15" y="36.6" fill="#555"><tspan x="15" y="36.6">Cancer deaths, rate and age-standardized rate index, World</tspan></text></a><text font-size="14.4" x="15" y="55.5" fill="#666"><tspan x="15" y="55.52">Index of absolute number of cancer deaths, the all ages death rate (measured as the number of deaths per 100,000)</tspan><tspan x="15" y="71.36">and age-standardized death rate (assuming a constant population age structure). Figures are indexed to the year</tspan><tspan x="15" y="87.2">1990, where deaths and rates in 1990 are equal to 100.</tspan></text></g><g class="LineChart"><defs><clipPath id="a"><path d="M37.22 0h830v894.2h-830z"/></clipPath></defs><g class="AxisBoxView"><g class="HorizontalAxis" fill="#666" text-anchor="middle" font-size="16.2"><text x="47.2" y="556.5">1990</text><text x="156.8" y="556.5">1995</text><text x="266.4" y="556.5">2000</text><text x="376" y="556.5">2005</text><text x="485.7" y="556.5">2010</text><text x="617.2" y="556.5">2016</text></g><g class="VerticalAxis" fill="#666" dominant-baseline="middle" text-anchor="end" font-size="16.2"><text x="42.22" y="535.3">0</text><text x="42.22" y="480.9">20</text><text x="42.22" y="426.5">40</text><text x="42.22" y="372.1">60</text><text x="42.22" y="317.7">80</text><text x="42.22" y="263.3">100</text><text x="42.22" y="208.9">120</text><text x="42.22" y="154.5">140</text></g><g class="AxisGridLines"><path stroke="#ccc" d="M47.22 535.3h569.96"/><path stroke="#ddd" stroke-dasharray="3,2" d="M47.22 480.9h569.96M47.22 426.5h569.96M47.22 372.1h569.96M47.22 317.7h569.96M47.22 263.3h569.96M47.22 208.9h569.96M47.22 154.5h569.96"/></g><g class="AxisGridLines" stroke="#ddd" stroke-dasharray="3,2"><path d="M47.2 535.3V109.4M156.8 535.3V109.4M266.4 535.3V109.4M376 535.3V109.4M485.7 535.3V109.4M595.3 535.3V109.4"/></g></g><g clip-path="url(#a)"><g class="HeightedLegend clickable"><g class="legendMark"><path fill="#34983f" d="M627.18 108.15h10v2.5h-10z"/><text font-size="14.4" x="642.2" y="113.7" fill="#333"><tspan x="642.18" y="113.72">Total deaths</tspan></text></g><g class="legendMark"><path fill="#ca2628" d="M627.18 230.85h10v2.5h-10z"/><text font-size="14.4" x="642.2" y="236.4" fill="#333"><tspan x="642.18" y="236.42">Death rate (all ages)</tspan></text></g><g class="legendMark"><path fill="#3360a9" d="M627.18 308.05h10v2.5h-10z"/><text font-size="14.4" x="642.2" y="313.6" fill="#333"><tspan x="642.18" y="313.62">Death rate (age-standardized)</tspan></text></g></g><g class="Lines"><g class="key-World_0"><path stroke="#3360a9" stroke-linecap="round" d="M47 263l22 1 22-1 22-2h22l22 2 22 3 22 2 22 1 22 1h21l22 2 22 1 22 3 22 3 22 2 22 5 22 3 22 3 22 2 22 3 22 3 22 2 21 2 22 2 22 1 22 2" fill="none" stroke-width="1.5"/><g fill="#3360a9"><circle cx="47" cy="263" r="2"/><circle cx="69" cy="264" r="2"/><circle cx="91" cy="263" r="2"/><circle cx="113" cy="261" r="2"/><circle cx="135" cy="261" r="2"/><circle cx="157" cy="263" r="2"/><circle cx="179" cy="266" r="2"/><circle cx="201" cy="268" r="2"/><circle cx="223" cy="269" r="2"/><circle cx="245" cy="270" r="2"/><circle cx="266" cy="270" r="2"/><circle cx="288" cy="272" r="2"/><circle cx="310" cy="273" r="2"/><circle cx="332" cy="276" r="2"/><circle cx="354" cy="279" r="2"/><circle cx="376" cy="281" r="2"/><circle cx="398" cy="286" r="2"/><circle cx="420" cy="289" r="2"/><circle cx="442" cy="292" r="2"/><circle cx="464" cy="294" r="2"/><circle cx="486" cy="297" r="2"/><circle cx="508" cy="300" r="2"/><circle cx="530" cy="302" r="2"/><circle cx="551" cy="304" r="2"/><circle cx="573" cy="306" r="2"/><circle cx="595" cy="307" r="2"/><circle cx="617" cy="309" r="2"/></g></g><g class="key-World_1"><path stroke="#ca2628" stroke-linecap="round" d="M47 263h22l22-3 22-3 22-3h22l22 1h22l22-1 22-3 21-2 22-2 22-2h44l22-1 22 2h22l22-1 22-1 22-1h22l22-1 21-2 22-3 22-2 22-3" fill="none" stroke-width="1.5"/><g fill="#ca2628"><circle cx="47" cy="263" r="2"/><circle cx="69" cy="263" r="2"/><circle cx="91" cy="260" r="2"/><circle cx="113" cy="257" r="2"/><circle cx="135" cy="254" r="2"/><circle cx="157" cy="254" r="2"/><circle cx="179" cy="255" r="2"/><circle cx="201" cy="255" r="2"/><circle cx="223" cy="254" r="2"/><circle cx="245" cy="251" r="2"/><circle cx="266" cy="249" r="2"/><circle cx="288" cy="247" r="2"/><circle cx="310" cy="245" r="2"/><circle cx="332" cy="245" r="2"/><circle cx="354" cy="245" r="2"/><circle cx="376" cy="244" r="2"/><circle cx="398" cy="246" r="2"/><circle cx="420" cy="246" r="2"/><circle cx="442" cy="245" r="2"/><circle cx="464" cy="244" r="2"/><circle cx="486" cy="243" r="2"/><circle cx="508" cy="243" r="2"/><circle cx="530" cy="242" r="2"/><circle cx="551" cy="240" r="2"/><circle cx="573" cy="237" r="2"/><circle cx="595" cy="235" r="2"/><circle cx="617" cy="232" r="2"/></g></g><g class="key-World_2"><path stroke="#34983f" stroke-linecap="round" d="M47 263l22-5 22-7 22-8 22-8 22-5 22-4 22-4 22-5 22-7 21-7 22-6 22-7 22-4 22-4 22-6 22-2 22-5 22-5 22-6 22-6 22-5 22-6 21-7 22-8 22-8 22-9" fill="none" stroke-width="1.5"/><g fill="#34983f"><circle cx="47" cy="263" r="2"/><circle cx="69" cy="258" r="2"/><circle cx="91" cy="251" r="2"/><circle cx="113" cy="243" r="2"/><circle cx="135" cy="235" r="2"/><circle cx="157" cy="230" r="2"/><circle cx="179" cy="226" r="2"/><circle cx="201" cy="222" r="2"/><circle cx="223" cy="217" r="2"/><circle cx="245" cy="210" r="2"/><circle cx="266" cy="203" r="2"/><circle cx="288" cy="197" r="2"/><circle cx="310" cy="190" r="2"/><circle cx="332" cy="186" r="2"/><circle cx="354" cy="182" r="2"/><circle cx="376" cy="176" r="2"/><circle cx="398" cy="174" r="2"/><circle cx="420" cy="169" r="2"/><circle cx="442" cy="164" r="2"/><circle cx="464" cy="158" r="2"/><circle cx="486" cy="152" r="2"/><circle cx="508" cy="147" r="2"/><circle cx="530" cy="141" r="2"/><circle cx="551" cy="134" r="2"/><circle cx="573" cy="126" r="2"/><circle cx="595" cy="118" r="2"/><circle cx="617" cy="109" r="2"/></g></g></g></g></g><g class="SourcesFooter" fill="#777"><g class="clickable" fill="#777"><text font-size="12.6" x="15" y="581.6"><tspan x="15" y="581.58">Source: OurWorldinData based on IHME, GBD</tspan></text></g><text font-size="12.6" x="649" y="581.6"><tspan x="649.02" y="581.58"><a target="_blank" href="https://ourworldindata.org" fill="#777">OurWorldInData.org</a> • <a href="http://creativecommons.org/licenses/by-sa/4.0/deed.en_US" target="_blank" fill="#777">CC BY-SA</a></tspan></text></g></g></svg>

<svg xmlns="http://www.w3.org/2000/svg" version="1.1" style="font-family: 'Helvetica Neue', Helvetica, Arial, sans-serif; font-size: 18px; background-color: white; text-rendering: optimizeLegibility; -webkit-font-smoothing: antialiased;" width="850" height="600"><g class="ChartTab"><g class="HeaderView"><g opacity="0.8" transform="translate(778, 15) scale(0.27)"><a xmlns:xlink="http://www.w3.org/1999/xlink" xlink:href="https://ourworldindata.org" target="_blank"><g><rect x="0" y="0" fill="#1B2543" width="211.2" height="130.1"/><rect x="0" y="112.2" fill="#E63912" width="211.2" height="17.9"/><g><rect x="1.2" y="12.3" fill="none" width="210.2" height="99.2"/><path fill="#FFFFFF" d="M37.8,32.2c0,12.7-7.7,19.4-17.1,19.4c-9.7,0-16.6-7.5-16.6-18.7c0-11.7,7.3-19.3,17.1-19.3 C31.3,13.7,37.8,21.3,37.8,32.2z M9.2,32.8c0,7.9,4.3,14.9,11.8,14.9c7.5,0,11.8-6.9,11.8-15.3c0-7.3-3.8-14.9-11.8-14.9 C13.1,17.5,9.2,24.8,9.2,32.8z"/><path fill="#FFFFFF" d="M62.7,43.8c0,2.7,0.1,5.1,0.2,7.2h-4.3l-0.3-4.3h-0.1c-1.3,2.1-4,4.9-8.8,4.9c-4.2,0-9.1-2.3-9.1-11.6 V24.6h4.8v14.6c0,5,1.5,8.4,5.9,8.4c3.2,0,5.5-2.2,6.3-4.4c0.3-0.7,0.4-1.6,0.4-2.5V24.6h4.8V43.8z"/><path fill="#FFFFFF" d="M67.3,32.8c0-3.1-0.1-5.8-0.2-8.2h4.2l0.2,5.2h0.2c1.2-3.5,4.1-5.8,7.3-5.8c0.5,0,0.9,0.1,1.4,0.2v4.5 c-0.5-0.1-1-0.2-1.6-0.2c-3.4,0-5.8,2.6-6.5,6.2c-0.1,0.7-0.2,1.4-0.2,2.2V51h-4.8V32.8z"/><path fill="#FFFFFF" d="M95.4,51l-9.4-36.8h5l4.4,18.6c1.1,4.6,2.1,9.2,2.7,12.7h0.1c0.6-3.7,1.8-8,3-12.8l4.9-18.5h5l4.5,18.7 c1,4.4,2,8.7,2.6,12.6h0.1c0.8-4,1.8-8.1,3-12.7l4.9-18.5h4.9L120.6,51h-5L111,31.9c-1.1-4.7-1.9-8.3-2.4-12h-0.1 c-0.7,3.7-1.5,7.3-2.8,12L100.4,51H95.4z"/><path fill="#FFFFFF" d="M154.9,37.6c0,9.8-6.8,14-13.2,14c-7.2,0-12.7-5.2-12.7-13.6c0-8.8,5.8-14,13.1-14 C149.8,24,154.9,29.5,154.9,37.6z M133.9,37.9c0,5.8,3.3,10.1,8,10.1c4.6,0,8-4.3,8-10.3c0-4.5-2.2-10.1-7.9-10.1 C136.3,27.6,133.9,32.8,133.9,37.9z"/><path fill="#FFFFFF" d="M158.2,32.8c0-3.1-0.1-5.8-0.2-8.2h4.2l0.2,5.2h0.2c1.2-3.5,4.1-5.8,7.3-5.8c0.5,0,0.9,0.1,1.4,0.2v4.5 c-0.5-0.1-1-0.2-1.6-0.2c-3.4,0-5.8,2.6-6.5,6.2c-0.1,0.7-0.2,1.4-0.2,2.2V51h-4.8V32.8z"/><path fill="#FFFFFF" d="M173.5,12.3h4.8V51h-4.8V12.3z"/><path fill="#FFFFFF" d="M206.5,12.3v31.9c0,2.3,0.1,5,0.2,6.8h-4.3l-0.2-4.6H202c-1.5,2.9-4.7,5.2-9,5.2 c-6.4,0-11.3-5.4-11.3-13.4c-0.1-8.8,5.4-14.2,11.9-14.2c4,0,6.8,1.9,8,4h0.1V12.3H206.5z M201.7,35.4c0-0.6-0.1-1.4-0.2-2 c-0.7-3.1-3.3-5.6-6.9-5.6c-5,0-7.9,4.4-7.9,10.2c0,5.3,2.6,9.8,7.8,9.8c3.2,0,6.2-2.1,7.1-5.7c0.2-0.7,0.2-1.3,0.2-2.1V35.4z"/><path fill="#FFFFFF" d="M42.8,64c0.1,1.6-1.1,2.9-3.1,2.9c-1.7,0-2.9-1.3-2.9-2.9c0-1.7,1.3-3,3-3C41.7,61,42.8,62.3,42.8,64z M37.4,97.8V71.4h4.8v26.4H37.4z"/><path fill="#FFFFFF" d="M47.5,78.6c0-2.7-0.1-5-0.2-7.1h4.3l0.3,4.4h0.1c1.3-2.5,4.4-5,8.8-5c3.7,0,9.4,2.2,9.4,11.2v15.8h-4.8 V82.6c0-4.3-1.6-7.8-6.1-7.8c-3.2,0-5.6,2.2-6.5,4.9c-0.2,0.6-0.3,1.4-0.3,2.2v15.9h-4.8V78.6z"/><path fill="#FFFFFF" d="M84,61.6c2.9-0.4,6.3-0.8,10.1-0.8c6.8,0,11.7,1.6,14.9,4.6c3.3,3,5.2,7.3,5.2,13.2c0,6-1.9,10.9-5.3,14.3 c-3.4,3.4-9.1,5.3-16.3,5.3c-3.4,0-6.2-0.2-8.6-0.4V61.6z M88.8,94.1c1.2,0.2,3,0.3,4.8,0.3c10.2,0,15.7-5.7,15.7-15.6 c0.1-8.7-4.9-14.2-14.9-14.2c-2.5,0-4.3,0.2-5.6,0.5V94.1z"/><path fill="#FFFFFF" d="M132.1,97.8l-0.4-3.3h-0.2c-1.5,2.1-4.3,3.9-8.1,3.9c-5.4,0-8.1-3.8-8.1-7.6c0-6.4,5.7-9.9,15.9-9.8v-0.5 c0-2.2-0.6-6.1-6-6.1c-2.5,0-5,0.8-6.9,2l-1.1-3.2c2.2-1.4,5.4-2.3,8.7-2.3c8.1,0,10.1,5.5,10.1,10.8v9.9c0,2.3,0.1,4.5,0.4,6.3 H132.1z M131.4,84.4c-5.3-0.1-11.2,0.8-11.2,5.9c0,3.1,2.1,4.6,4.5,4.6c3.4,0,5.6-2.2,6.4-4.4c0.2-0.5,0.3-1,0.3-1.5V84.4z"/><path fill="#FFFFFF" d="M146.6,63.9v7.6h6.9v3.7h-6.9v14.2c0,3.3,0.9,5.1,3.6,5.1c1.3,0,2.2-0.2,2.8-0.3l0.2,3.6 c-0.9,0.4-2.4,0.7-4.3,0.7c-2.2,0-4-0.7-5.2-2c-1.4-1.4-1.9-3.8-1.9-6.9V75.1h-4.1v-3.7h4.1v-6.3L146.6,63.9z"/><path fill="#FFFFFF" d="M171.4,97.8l-0.4-3.3h-0.2c-1.5,2.1-4.3,3.9-8.1,3.9c-5.4,0-8.1-3.8-8.1-7.6c0-6.4,5.7-9.9,15.9-9.8v-0.5 c0-2.2-0.6-6.1-6-6.1c-2.5,0-5,0.8-6.9,2l-1.1-3.2c2.2-1.4,5.4-2.3,8.7-2.3c8.1,0,10.1,5.5,10.1,10.8v9.9c0,2.3,0.1,4.5,0.4,6.3 H171.4z M170.7,84.4c-5.3-0.1-11.2,0.8-11.2,5.9c0,3.1,2.1,4.6,4.5,4.6c3.4,0,5.6-2.2,6.4-4.4c0.2-0.5,0.3-1,0.3-1.5V84.4z"/></g></g></a></g><a href="https://ourworldindata.org/grapher/cancer-deaths-rate-and-age-standardized-rate-index" target="_blank"><text font-size="27.00" x="15.0" y="36.6" fill="#555"><tspan x="15" y="36.6">Cancer deaths, rate and age-standardized rate index, World</tspan></text></a><text font-size="14.40" x="15.0" y="55.5" fill="#666"><tspan x="15" y="55.519999999999996">Index of absolute number of cancer deaths, the all ages death rate (measured as the number of deaths per 100,000)</tspan><tspan x="15" y="71.36">and age-standardized death rate (assuming a constant population age structure). Figures are indexed to the year</tspan><tspan x="15" y="87.2">1990, where deaths and rates in 1990 are equal to 100.</tspan></text></g><g class="LineChart"><defs><clipPath id="boundsClip-1"><rect x="37.216" y="0" width="830" height="894.2"></rect></clipPath></defs><g class="AxisBoxView"><g class="HorizontalAxis"><text x="47.2" y="556.5" fill="#666" text-anchor="middle" font-size="16.2">1990</text><text x="156.8" y="556.5" fill="#666" text-anchor="middle" font-size="16.2">1995</text><text x="266.4" y="556.5" fill="#666" text-anchor="middle" font-size="16.2">2000</text><text x="376" y="556.5" fill="#666" text-anchor="middle" font-size="16.2">2005</text><text x="485.7" y="556.5" fill="#666" text-anchor="middle" font-size="16.2">2010</text><text x="617.2" y="556.5" fill="#666" text-anchor="middle" font-size="16.2">2016</text></g><g class="VerticalAxis"><text x="42.22" y="535.3" fill="#666" dominant-baseline="middle" text-anchor="end" font-size="16.2">0</text><text x="42.22" y="480.9" fill="#666" dominant-baseline="middle" text-anchor="end" font-size="16.2">20</text><text x="42.22" y="426.5" fill="#666" dominant-baseline="middle" text-anchor="end" font-size="16.2">40</text><text x="42.22" y="372.1" fill="#666" dominant-baseline="middle" text-anchor="end" font-size="16.2">60</text><text x="42.22" y="317.7" fill="#666" dominant-baseline="middle" text-anchor="end" font-size="16.2">80</text><text x="42.22" y="263.3" fill="#666" dominant-baseline="middle" text-anchor="end" font-size="16.2">100</text><text x="42.22" y="208.9" fill="#666" dominant-baseline="middle" text-anchor="end" font-size="16.2">120</text><text x="42.22" y="154.5" fill="#666" dominant-baseline="middle" text-anchor="end" font-size="16.2">140</text></g><g class="AxisGridLines"><line x1="47.22" y1="535.3" x2="617.18" y2="535.3" stroke="#ccc"></line><line x1="47.22" y1="480.9" x2="617.18" y2="480.9" stroke="#ddd" stroke-dasharray="3,2"></line><line x1="47.22" y1="426.5" x2="617.18" y2="426.5" stroke="#ddd" stroke-dasharray="3,2"></line><line x1="47.22" y1="372.1" x2="617.18" y2="372.1" stroke="#ddd" stroke-dasharray="3,2"></line><line x1="47.22" y1="317.7" x2="617.18" y2="317.7" stroke="#ddd" stroke-dasharray="3,2"></line><line x1="47.22" y1="263.3" x2="617.18" y2="263.3" stroke="#ddd" stroke-dasharray="3,2"></line><line x1="47.22" y1="208.9" x2="617.18" y2="208.9" stroke="#ddd" stroke-dasharray="3,2"></line><line x1="47.22" y1="154.5" x2="617.18" y2="154.5" stroke="#ddd" stroke-dasharray="3,2"></line></g><g class="AxisGridLines"><line x1="47.2" y1="535.30" x2="47.2" y2="109.40" stroke="#ddd" stroke-dasharray="3,2"></line><line x1="156.8" y1="535.30" x2="156.8" y2="109.40" stroke="#ddd" stroke-dasharray="3,2"></line><line x1="266.4" y1="535.30" x2="266.4" y2="109.40" stroke="#ddd" stroke-dasharray="3,2"></line><line x1="376" y1="535.30" x2="376" y2="109.40" stroke="#ddd" stroke-dasharray="3,2"></line><line x1="485.7" y1="535.30" x2="485.7" y2="109.40" stroke="#ddd" stroke-dasharray="3,2"></line><line x1="595.3" y1="535.30" x2="595.3" y2="109.40" stroke="#ddd" stroke-dasharray="3,2"></line></g></g><g clip-path="url(#boundsClip-1)"><g class="HeightedLegend clickable"><g class="legendMark"><rect x="627.184" y="102.2" width="94.632" height="14.4" fill="#fff" opacity="0"></rect><rect x="627.184" y="108.15" width="10" height="2.5" fill="#34983f"></rect><text font-size="14.40" x="642.2" y="113.7" fill="#333"><tspan x="642.184" y="113.72000000000001">Total deaths</tspan></text></g><g class="legendMark"><rect x="627.184" y="224.9" width="145.89600000000002" height="14.4" fill="#fff" opacity="0"></rect><rect x="627.184" y="230.85" width="10" height="2.5" fill="#ca2628"></rect><text font-size="14.40" x="642.2" y="236.4" fill="#333"><tspan x="642.184" y="236.42000000000002">Death rate (all ages)</tspan></text></g><g class="legendMark"><rect x="627.184" y="302.1" width="207.81600000000003" height="14.4" fill="#fff" opacity="0"></rect><rect x="627.184" y="308.05" width="10" height="2.5" fill="#3360a9"></rect><text font-size="14.40" x="642.2" y="313.6" fill="#333"><tspan x="642.184" y="313.62">Death rate (age-standardized)</tspan></text></g></g><g class="Lines"><rect x="47" y="109" width="570" height="426" fill="rgba(255,255,255,0)" opacity="0"></rect><g class="key-World_0"><path stroke="#3360a9" stroke-linecap="round" d="M47 263L69 264L91 263L113 261L135 261L157 263L179 266L201 268L223 269L245 270L266 270L288 272L310 273L332 276L354 279L376 281L398 286L420 289L442 292L464 294L486 297L508 300L530 302L551 304L573 306L595 307L617 309" fill="none" stroke-width="1.5"></path><g fill="#3360a9"><circle cx="47" cy="263" r="2"></circle><circle cx="69" cy="264" r="2"></circle><circle cx="91" cy="263" r="2"></circle><circle cx="113" cy="261" r="2"></circle><circle cx="135" cy="261" r="2"></circle><circle cx="157" cy="263" r="2"></circle><circle cx="179" cy="266" r="2"></circle><circle cx="201" cy="268" r="2"></circle><circle cx="223" cy="269" r="2"></circle><circle cx="245" cy="270" r="2"></circle><circle cx="266" cy="270" r="2"></circle><circle cx="288" cy="272" r="2"></circle><circle cx="310" cy="273" r="2"></circle><circle cx="332" cy="276" r="2"></circle><circle cx="354" cy="279" r="2"></circle><circle cx="376" cy="281" r="2"></circle><circle cx="398" cy="286" r="2"></circle><circle cx="420" cy="289" r="2"></circle><circle cx="442" cy="292" r="2"></circle><circle cx="464" cy="294" r="2"></circle><circle cx="486" cy="297" r="2"></circle><circle cx="508" cy="300" r="2"></circle><circle cx="530" cy="302" r="2"></circle><circle cx="551" cy="304" r="2"></circle><circle cx="573" cy="306" r="2"></circle><circle cx="595" cy="307" r="2"></circle><circle cx="617" cy="309" r="2"></circle></g></g><g class="key-World_1"><path stroke="#ca2628" stroke-linecap="round" d="M47 263L69 263L91 260L113 257L135 254L157 254L179 255L201 255L223 254L245 251L266 249L288 247L310 245L332 245L354 245L376 244L398 246L420 246L442 245L464 244L486 243L508 243L530 242L551 240L573 237L595 235L617 232" fill="none" stroke-width="1.5"></path><g fill="#ca2628"><circle cx="47" cy="263" r="2"></circle><circle cx="69" cy="263" r="2"></circle><circle cx="91" cy="260" r="2"></circle><circle cx="113" cy="257" r="2"></circle><circle cx="135" cy="254" r="2"></circle><circle cx="157" cy="254" r="2"></circle><circle cx="179" cy="255" r="2"></circle><circle cx="201" cy="255" r="2"></circle><circle cx="223" cy="254" r="2"></circle><circle cx="245" cy="251" r="2"></circle><circle cx="266" cy="249" r="2"></circle><circle cx="288" cy="247" r="2"></circle><circle cx="310" cy="245" r="2"></circle><circle cx="332" cy="245" r="2"></circle><circle cx="354" cy="245" r="2"></circle><circle cx="376" cy="244" r="2"></circle><circle cx="398" cy="246" r="2"></circle><circle cx="420" cy="246" r="2"></circle><circle cx="442" cy="245" r="2"></circle><circle cx="464" cy="244" r="2"></circle><circle cx="486" cy="243" r="2"></circle><circle cx="508" cy="243" r="2"></circle><circle cx="530" cy="242" r="2"></circle><circle cx="551" cy="240" r="2"></circle><circle cx="573" cy="237" r="2"></circle><circle cx="595" cy="235" r="2"></circle><circle cx="617" cy="232" r="2"></circle></g></g><g class="key-World_2"><path stroke="#34983f" stroke-linecap="round" d="M47 263L69 258L91 251L113 243L135 235L157 230L179 226L201 222L223 217L245 210L266 203L288 197L310 190L332 186L354 182L376 176L398 174L420 169L442 164L464 158L486 152L508 147L530 141L551 134L573 126L595 118L617 109" fill="none" stroke-width="1.5"></path><g fill="#34983f"><circle cx="47" cy="263" r="2"></circle><circle cx="69" cy="258" r="2"></circle><circle cx="91" cy="251" r="2"></circle><circle cx="113" cy="243" r="2"></circle><circle cx="135" cy="235" r="2"></circle><circle cx="157" cy="230" r="2"></circle><circle cx="179" cy="226" r="2"></circle><circle cx="201" cy="222" r="2"></circle><circle cx="223" cy="217" r="2"></circle><circle cx="245" cy="210" r="2"></circle><circle cx="266" cy="203" r="2"></circle><circle cx="288" cy="197" r="2"></circle><circle cx="310" cy="190" r="2"></circle><circle cx="332" cy="186" r="2"></circle><circle cx="354" cy="182" r="2"></circle><circle cx="376" cy="176" r="2"></circle><circle cx="398" cy="174" r="2"></circle><circle cx="420" cy="169" r="2"></circle><circle cx="442" cy="164" r="2"></circle><circle cx="464" cy="158" r="2"></circle><circle cx="486" cy="152" r="2"></circle><circle cx="508" cy="147" r="2"></circle><circle cx="530" cy="141" r="2"></circle><circle cx="551" cy="134" r="2"></circle><circle cx="573" cy="126" r="2"></circle><circle cx="595" cy="118" r="2"></circle><circle cx="617" cy="109" r="2"></circle></g></g></g></g></g><g style="fill: #777;" class="SourcesFooter"><g style="fill: #777;" class="clickable"><text font-size="12.60" x="15.0" y="581.6"><tspan x="15" y="581.58">Source: OurWorldinData based on IHME, GBD</tspan></text></g><text font-size="12.60" x="649.0" y="581.6"><tspan x="649.024" y="581.58"><a target='_blank' style='fill: #777;' href='https://ourworldindata.org'>OurWorldInData.org</a> • <a style="fill: #777;" href="http://creativecommons.org/licenses/by-sa/4.0/deed.en_US" target="_blank">CC BY-SA</a></tspan></text></g></g></svg>
